X:870
T:MacRostie Park
C:Robin Brock
S:Learned from Auld Spice Ceilidh Band
Z:Nigel Gatherer
M:2/4
L:1/8
K:D
D/E/ | F2 A>F | EF DF/G/ | A2 f>e | dB A2 | Bd GB | Ad FA | G>F ED | CE A
D/E/ | F2 A>F | EF DF/G/ | A2 f>e | dB A2 | Bd GB | AF dF | E>G FE | FD D ||
d/e/ | f>A df | eA ce | dF Bd | cA F2 | Bd GB | Ad FA | G>F ED | CE A
D/E/ | F2 A>F | EF DF/G/ | A2 f>e | dB A2 | Bd GB | AF dF | E>G FE | FD D |]
<end>
<start>
